packages/icons/src/gitops-repo-cert-blue.svg

<svg fill="none" viewBox="0 0 64 64" xmlns="http://www.w3.org/2000/svg"><path clip-rule="evenodd" d="m9.63477 49.9656v-35.9695h44.49673v35.9695zm46.49673-39.96951h-48.49673c-1.10457 0-2 .89541-2 2.00001v39.9695c0 1.1045.89542 2 1.99999 2h48.49674c1.1045 0 2-.8955 2-2v-39.9695c0-1.1046-.8955-2.00001-2-2.00001zm-15.4358 12.02681c-2.3183 0-4.1977 1.8794-4.1977 4.1977 0 2.3182 1.8794 4.1976 4.1977 4.1976 2.3182 0 4.1976-1.8794 4.1976-4.1976 0-2.3183-1.8794-4.1977-4.1976-4.1977zm-8.1977 4.1977c0-4.5275 3.6702-8.1977 8.1977-8.1977 4.5274 0 8.1976 3.6702 8.1976 8.1977 0 1.3242-.314 2.5751-.8716 3.6823v14.0894c0 .7763-.4492 1.4825-1.1524 1.8115-.7031.329-1.5331.2214-2.1291-.276l-3.546-2.9593-3.9042 3.0081c-.6038.4652-1.4195.5468-2.1035.2103-.6839-.3364-1.1172-1.0324-1.1172-1.7946v-12.9445c-.9881-1.3541-1.5713-3.0226-1.5713-4.8272zm8.1977 8.1976c1.184 0 2.3095-.2511 3.326-.7028v6.0028l-1.496-1.2485c-.7196-.6005-1.7597-.6208-2.5022-.0488l-1.9542 1.5057v-5.9382c.8245.2787 1.7078.4298 2.6264.4298zm-26.7318-12.4015c0-1.1045.8933-2 1.9952-2h12.0095c1.102 0 1.9953.8955 1.9953 2 0 1.1046-.8933 2-1.9953 2h-12.0095c-1.1019 0-1.9952-.8954-1.9952-2zm1.9952 5.9909c-1.1019 0-1.9952.8955-1.9952 2 0 1.1046.8933 2 1.9952 2h12.0095c1.102 0 1.9953-.8954 1.9953-2 0-1.1045-.8933-2-1.9953-2z" fill="#0278d5" fill-rule="evenodd"/></svg>

<svg viewBox="0 0 64 64" fill="none" xmlns="http://www.w3.org/2000/svg">
<path fill-rule="evenodd" clip-rule="evenodd" d="M9.63477 49.9656V13.9961H54.1315V49.9656H9.63477ZM56.1315 9.99609H7.63477C6.5302 9.99609 5.63477 10.8915 5.63477 11.9961V51.9656C5.63477 53.0701 6.53019 53.9656 7.63476 53.9656H56.1315C57.236 53.9656 58.1315 53.0701 58.1315 51.9656V11.9961C58.1315 10.8915 57.236 9.99609 56.1315 9.99609ZM40.6957 22.0229C38.3774 22.0229 36.498 23.9023 36.498 26.2206C36.498 28.5388 38.3774 30.4182 40.6957 30.4182C43.0139 30.4182 44.8933 28.5388 44.8933 26.2206C44.8933 23.9023 43.0139 22.0229 40.6957 22.0229ZM32.498 26.2206C32.498 21.6931 36.1682 18.0229 40.6957 18.0229C45.2231 18.0229 48.8933 21.6931 48.8933 26.2206C48.8933 27.5448 48.5793 28.7957 48.0217 29.9029V43.9923C48.0217 44.7686 47.5725 45.4748 46.8693 45.8038C46.1662 46.1328 45.3362 46.0252 44.7402 45.5278L41.1942 42.5685L37.29 45.5766C36.6862 46.0418 35.8705 46.1234 35.1865 45.7869C34.5026 45.4505 34.0693 44.7545 34.0693 43.9923V31.0478C33.0812 29.6937 32.498 28.0252 32.498 26.2206ZM40.6957 34.4182C41.8797 34.4182 43.0052 34.1671 44.0217 33.7154V39.7182L42.5257 38.4697C41.8061 37.8692 40.766 37.8489 40.0235 38.4209L38.0693 39.9266V33.9884C38.8938 34.2671 39.7771 34.4182 40.6957 34.4182ZM13.9639 22.0167C13.9639 20.9122 14.8572 20.0167 15.9591 20.0167H27.9686C29.0706 20.0167 29.9639 20.9122 29.9639 22.0167C29.9639 23.1213 29.0706 24.0167 27.9686 24.0167H15.9591C14.8572 24.0167 13.9639 23.1213 13.9639 22.0167ZM15.9591 28.0076C14.8572 28.0076 13.9639 28.9031 13.9639 30.0076C13.9639 31.1122 14.8572 32.0076 15.9591 32.0076H27.9686C29.0706 32.0076 29.9639 31.1122 29.9639 30.0076C29.9639 28.9031 29.0706 28.0076 27.9686 28.0076H15.9591Z" fill="#0278D5"/>
</svg>
